humanity-icon-theme/Humanity/animations/22/brasero-disc-95.svg

<?xml version="1.0" encoding="UTF-8" standalone="no"?>
<!-- Created with Inkscape (http://www.inkscape.org/) -->
<svg
   xmlns:svg="http://www.w3.org/2000/svg"
   xmlns="http://www.w3.org/2000/svg"
   xmlns:xlink="http://www.w3.org/1999/xlink"
   version="1.0"
   width="22"
   height="22"
   id="svg2">
  <defs
     id="defs4">
    <linearGradient
       id="linearGradient3587-6-5">
      <stop
         id="stop3589-9-2"
         style="stop-color:#000000;stop-opacity:1"
         offset="0" />
      <stop
         id="stop3591-7-4"
         style="stop-color:#363636;stop-opacity:1"
         offset="1" />
    </linearGradient>
    <linearGradient
       x1="15.669166"
       y1="-2.6219723"
       x2="15.669166"
       y2="11.969362"
       id="linearGradient2401"
       xlink:href="#linearGradient3587-6-5"
       gradientUnits="userSpaceOnUse"
       gradientTransform="matrix(0.9302326,0,0,1.2359551,-11.575969,5.1536003)" />
    <linearGradient
       x1="35.007519"
       y1="23.178743"
       x2="35.007519"
       y2="4.9945626"
       id="linearGradient2404"
       xlink:href="#linearGradient3587-6-5"
       gradientUnits="userSpaceOnUse"
       gradientTransform="translate(-25.785715,-3.035714)" />
  </defs>
  <path
     d="M 11,4 C 6.5840001,4 2.9999998,7.5840001 3,12 C 3,16.416 6.5840002,20 11,20 C 15.416,20 19,16.416 19,12 C 19,7.5840001 15.416,4.0000002 11,4 z M 11,9 C 12.656,9 14,10.344 14,12 C 14,13.656 12.656,15 11,15 C 9.344,15 8,13.656 8,12 C 8.0000001,10.344 9.344,9 11,9 z"
     id="path3229"
     style="opacity:0.6;fill:#ffffff;fill-opacity:1;fill-rule:evenodd;stroke:none;stroke-width:1;stroke-linecap:butt;stroke-linejoin:miter;marker:none;marker-start:none;marker-mid:none;marker-end:none;stroke-miterlimit:4;stroke-dasharray:none;stroke-dashoffset:0;stroke-opacity:1;visibility:visible;display:inline;overflow:visible;enable-background:accumulate" />
  <path
     d="M 11,3 C 10.103,3 9.24278,3.1648142 8.4375,3.4375 L 9.96875,8.1875 C 10.292905,8.0675274 10.6343,8 11,8 L 11,3 z M 8.15625,3.53125 C 7.8655806,3.6418235 7.5858393,3.7638896 7.3125,3.90625 C 7.5865646,3.7611704 7.8718263,3.6406552 8.15625,3.53125 z M 6.1875,4.625 C 5.9918381,4.7730296 5.8060561,4.9287413 5.625,5.09375 C 5.8028592,4.9322527 5.9956143,4.7701364 6.1875,4.625 z M 3.0625,10.03125 C 3.0237488,10.350291 3,10.670555 3,11 C 3,10.670282 3.0236765,10.350582 3.0625,10.03125 z"
     id="path3170"
     style="opacity:0.41999996;fill:url(#linearGradient2404);fill-opacity:1;fill-rule:evenodd;stroke:none;stroke-width:1;stroke-linecap:butt;stroke-linejoin:miter;marker:none;marker-start:none;marker-mid:none;marker-end:none;stroke-miterlimit:4;stroke-dasharray:none;stroke-dashoffset:0;stroke-opacity:1;visibility:visible;display:inline;overflow:visible;enable-background:accumulate" />
  <path
     d="M 11,3 L 11,8 C 12.656,8.0000001 14,9.344 14,11 C 14,12.656 12.656,14 11,14 C 9.344,14 8,12.656 8,11 C 8.0000002,10.012488 8.481732,9.140527 9.21875,8.59375 C 9.456668,8.418046 9.70431,8.282915 9.96875,8.1875 L 8.4375,3.40625 C 7.6710829,3.66519 6.9352266,4.056456 6.25,4.5625 C 4.2790487,6.020065 3.0000001,8.362255 3,11 C 3,15.416 6.5840002,19 11,19 C 15.416,19 19,15.416 19,11 C 19,6.5840001 15.416,3.0000002 11,3 z"
     id="path3288"
     style="opacity:0.7;fill:url(#linearGradient2401);fill-opacity:1;fill-rule:nonzero;stroke:none;stroke-width:1;stroke-linecap:butt;stroke-linejoin:miter;marker:none;marker-start:none;marker-mid:none;marker-end:none;stroke-miterlimit:4;stroke-dasharray:none;stroke-dashoffset:0;stroke-opacity:1;visibility:visible;display:inline;overflow:visible;enable-background:accumulate" />
</svg>

<?xml version="1.0" encoding="UTF-8" standalone="no"?>
<!-- Created with Inkscape (http://www.inkscape.org/) -->
<svg id="svg2" xmlns="http://www.w3.org/2000/svg" height="22" width="22" version="1.0" xmlns:xlink="http://www.w3.org/1999/xlink">
 <defs id="defs4">
  <linearGradient id="linearGradient3587-6-5">
   <stop id="stop3589-9-2" offset="0"/>
   <stop id="stop3591-7-4" style="stop-color:#363636" offset="1"/>
  </linearGradient>
  <linearGradient id="linearGradient2401" y2="11.969" xlink:href="#linearGradient3587-6-5" gradientUnits="userSpaceOnUse" x2="15.669" gradientTransform="matrix(.93023 0 0 1.236 -11.576 5.1536)" y1="-2.622" x1="15.669"/>
  <linearGradient id="linearGradient2404" y2="4.9946" xlink:href="#linearGradient3587-6-5" gradientUnits="userSpaceOnUse" x2="35.008" gradientTransform="translate(-25.786 -3.0357)" y1="23.179" x1="35.008"/>
 </defs>
 <path id="path3229" style="opacity:.6;fill-rule:evenodd;fill:#fff" d="m11 4c-4.416 0-8 3.584-8 8s3.584 8 8 8 8-3.584 8-8-3.584-8-8-8zm0 5c1.656 0 3 1.344 3 3s-1.344 3-3 3-3-1.344-3-3 1.344-3 3-3z"/>
 <path id="path3170" style="opacity:0.42;fill-rule:evenodd;fill:url(#linearGradient2404)" d="m11 3c-0.897 0-1.7572 0.1648-2.5625 0.4375l1.5313 4.75c0.3242-0.12 0.6652-0.1875 1.0312-0.1875v-5zm-2.8438 0.5312c-0.2906 0.1106-0.5704 0.2327-0.8437 0.375 0.2741-0.145 0.5593-0.2655 0.8437-0.375zm-1.9687 1.0938c-0.1957 0.148-0.3814 0.3037-0.5625 0.4688 0.1779-0.1615 0.3706-0.3237 0.5625-0.4688zm-3.125 5.406c-0.0388 0.319-0.0625 0.64-0.0625 0.969 0-0.33 0.0237-0.649 0.0625-0.969z"/>
 <path id="path3288" style="opacity:.7;fill:url(#linearGradient2401)" d="m11 3v5c1.656 0 3 1.344 3 3s-1.344 3-3 3-3-1.344-3-3c0-0.988 0.4817-1.8595 1.2188-2.4062 0.2379-0.1758 0.4855-0.3109 0.75-0.4063l-1.5313-4.7813c-0.7664 0.259-1.5023 0.6503-2.1875 1.1563-1.971 1.4576-3.25 3.7998-3.25 6.4375 0 4.416 3.584 8 8 8s8-3.584 8-8-3.584-8-8-8z"/>
</svg>
